X:1
T:The Bold English Navvy
M:3/4
L:1/4
K:F
 z2 F3/4 G/4| A G A| F D3/2 C/2| D/2 F3/2 G| F2 C| F A c| d c3/2 d/2|\
 c/2 A3/2 F| G2 C/2C/2| F A c| d c3/2 d/2| c/2 A3/2 F| G2 c/2G/2| A3/2 G/2A/2 G/2|\
 F/2 D3/2 C| D F3/2 G/2| F2 z|
